images/icons/icons.svg

<svg aria-hidden="true" style="position: absolute; width: 0; height: 0; overflow: hidden;" version="1.1" xmlns="http://www.w3.org/2000/svg" xmlns:xlink="http://www.w3.org/1999/xlink">
<defs>
<symbol id="close-form-btn" viewBox="0 0 32 32">
<path d="M26.667 9.081l-1.97-1.97-7.808 7.808-7.808-7.808-1.97 1.97 7.808 7.808-7.808 7.808 1.97 1.97 7.808-7.808 7.808 7.808 1.97-1.97-7.808-7.808 7.808-7.808z"></path>
</symbol>
<symbol id="email-contact" viewBox="0 0 43 32">
<path d="M38.667 0h-34.667c-2.205 0-4 1.795-4 4v24c0 2.205 1.795 4 4 4h34.667c2.205 0 4-1.795 4-4v-24c0-2.205-1.795-4-4-4zM38.667 2.667c0.181 0 0.355 0.037 0.512 0.104l-17.845 15.467-17.845-15.467c0.151-0.065 0.327-0.104 0.512-0.104h34.667zM38.667 29.333h-34.667c-0.736 0-1.333-0.597-1.333-1.333v0-22.413l17.792 15.421c0.233 0.203 0.539 0.327 0.875 0.327s0.642-0.124 0.876-0.328l-0.002 0.001 17.792-15.421v22.413c0 0.736-0.597 1.333-1.333 1.333v0z"></path>
</symbol>
<symbol id="email-form" viewBox="0 0 32 32">
<path d="M26.667 5.333h-21.333c-1.467 0-2.652 1.2-2.652 2.667l-0.014 16c0 1.467 1.2 2.667 2.667 2.667h21.333c1.467 0 2.667-1.2 2.667-2.667v-16c0-1.467-1.2-2.667-2.667-2.667zM26.133 11.001l-9.426 5.892c-0.201 0.126-0.446 0.2-0.708 0.2s-0.506-0.075-0.713-0.204l0.006 0.003-9.426-5.892c-0.336-0.201-0.557-0.562-0.557-0.975 0-0.625 0.507-1.132 1.132-1.132 0.233 0 0.449 0.070 0.629 0.19l-0.004-0.003 8.933 5.586 8.933-5.588c0.176-0.118 0.392-0.188 0.624-0.188 0.625 0 1.132 0.507 1.132 1.132 0 0.413-0.221 0.775-0.552 0.972l-0.005 0.003z"></path>
</symbol>
<symbol id="person-form" viewBox="0 0 32 32">
<path d="M16 16c2.946 0 5.333-2.388 5.333-5.333s-2.388-5.333-5.333-5.333v0c-2.946 0-5.333 2.388-5.333 5.333s2.388 5.333 5.333 5.333v0zM16 18.667c-3.561 0-10.667 1.787-10.667 5.333v1.333c0 0.732 0.599 1.333 1.333 1.333h18.667c0.732 0 1.333-0.601 1.333-1.333v-1.333c0-3.547-7.108-5.333-10.667-5.333z"></path>
</symbol>
<symbol id="phone-contact" viewBox="0 0 20 32">
<path d="M17 0h-14c-1.654 0-3 1.346-3 3v26c0 1.654 1.346 3 3 3h14c1.654 0 3-1.346 3-3v-26c0-1.654-1.346-3-3-3zM3 2h14c0.552 0 1 0.448 1 1v0 21h-16v-21c0-0.552 0.448-1 1-1v0zM17 30h-14c-0.552 0-1-0.448-1-1v0-3h16v3c0 0.552-0.448 1-1 1v0z"></path>
<path d="M4.708 27.478c0.18 0.163 0.293 0.399 0.293 0.66s-0.113 0.497-0.292 0.659l-0.001 0.001c-0.186 0.17-0.435 0.275-0.708 0.275s-0.522-0.104-0.709-0.275l0.001 0.001c-0.18-0.163-0.293-0.399-0.293-0.66s0.113-0.497 0.292-0.659l0.001-0.001c0.186-0.17 0.435-0.275 0.708-0.275s0.522 0.104 0.709 0.275l-0.001-0.001z"></path>
</symbol>
<symbol id="phone-form" viewBox="0 0 32 32">
<path d="M24.882 19.774l-3.268-0.373c-0.090-0.011-0.194-0.018-0.299-0.018-0.707 0-1.348 0.287-1.811 0.75l-2.368 2.368c-3.669-1.894-6.585-4.81-8.427-8.372l-0.051-0.108 2.382-2.377c0.463-0.463 0.75-1.103 0.75-1.81 0-0.106-0.006-0.21-0.019-0.312l0.001 0.012-0.373-3.243c-0.155-1.287-1.24-2.276-2.557-2.276-0.001 0-0.002 0-0.003 0h-2.226c-1.454 0-2.663 1.209-2.574 2.663 0.683 10.987 9.47 19.76 20.444 20.443 1.452 0.089 2.663-1.12 2.663-2.574v-2.226c0-0.004 0-0.008 0-0.012 0-1.308-0.985-2.386-2.253-2.532l-0.012-0.001z"></path>
</symbol>
<symbol id="send-btn" viewBox="0 0 32 32">
<path d="M32 0l-32 18 10.227 3.787 15.773-14.787-11.997 16.187 0.009 0.003-0.012-0.003v8.813l5.735-6.691 7.267 2.691 4.999-28z"></path>
</symbol>
</defs>
</svg>

<svg aria-hidden="true" style="position:absolute;width:0;height:0" xmlns="http://www.w3.org/2000/svg" overflow="hidden">
  <defs>
    <symbol id="check" viewBox="0 0 34 32">
      <path d="M8.442 16.537l-.147-.14-2.205 2.088 7.767 7.41 16.318-15.567-2.19-2.089-14.128 13.465-5.416-5.167z"/>
    </symbol>
    <symbol id="close-form-btn" viewBox="0 0 32 32">
      <path d="M26.667 9.081l-1.97-1.97-7.808 7.808-7.808-7.808-1.97 1.97 7.808 7.808-7.808 7.808 1.97 1.97 7.808-7.808 7.808 7.808 1.97-1.97-7.808-7.808 7.808-7.808z"/>
    </symbol>
    <symbol id="email-contact" viewBox="0 0 43 32">
      <path d="M38.667 0H4C1.795 0 0 1.795 0 4v24c0 2.205 1.795 4 4 4h34.667c2.205 0 4-1.795 4-4V4c0-2.205-1.795-4-4-4zm0 2.667c.181 0 .355.037.512.104L21.334 18.238 3.489 2.771c.151-.065.327-.104.512-.104h34.667zm0 26.666H4A1.333 1.333 0 012.667 28V5.587l17.792 15.421c.233.203.539.327.875.327s.642-.124.876-.328l-.002.001L40 5.587V28c0 .736-.597 1.333-1.333 1.333z"/>
    </symbol>
    <symbol id="email-form" viewBox="0 0 32 32">
      <path d="M26.667 5.333H5.334A2.662 2.662 0 002.682 8l-.014 16c0 1.467 1.2 2.667 2.667 2.667h21.333c1.467 0 2.667-1.2 2.667-2.667V8c0-1.467-1.2-2.667-2.667-2.667zm-.534 5.668l-9.426 5.892a1.343 1.343 0 01-1.421-.004l.006.003L5.866 11A1.133 1.133 0 117.07 9.083l-.004-.003 8.933 5.586 8.933-5.588a1.132 1.132 0 111.204 1.916l-.005.003z"/>
    </symbol>
    <symbol id="person-form" viewBox="0 0 32 32">
      <path d="M16 16a5.333 5.333 0 100-10.666A5.333 5.333 0 1016 16zm0 2.667c-3.561 0-10.667 1.787-10.667 5.333v1.333c0 .732.599 1.333 1.333 1.333h18.667c.732 0 1.333-.601 1.333-1.333V24c0-3.547-7.108-5.333-10.667-5.333z"/>
    </symbol>
    <symbol id="phone-contact" viewBox="0 0 20 32">
      <path d="M17 0H3C1.346 0 0 1.346 0 3v26c0 1.654 1.346 3 3 3h14c1.654 0 3-1.346 3-3V3c0-1.654-1.346-3-3-3zM3 2h14a1 1 0 011 1v21H2V3a1 1 0 011-1zm14 28H3a1 1 0 01-1-1v-3h16v3a1 1 0 01-1 1z"/>
      <path d="M4.708 27.478a.889.889 0 01.001 1.319l-.001.001a1.048 1.048 0 01-1.417 0l.001.001a.889.889 0 01-.001-1.319l.001-.001a1.048 1.048 0 011.417 0l-.001-.001z"/>
    </symbol>
    <symbol id="phone-form" viewBox="0 0 32 32">
      <path d="M24.882 19.774l-3.268-.373a2.555 2.555 0 00-2.11.732l-2.368 2.368c-3.669-1.894-6.585-4.81-8.427-8.372l-.051-.108 2.382-2.377a2.552 2.552 0 00.731-2.122l.001.012-.373-3.243a2.578 2.578 0 00-2.557-2.276H6.613c-1.454 0-2.663 1.209-2.574 2.663.683 10.987 9.47 19.76 20.444 20.443 1.452.089 2.663-1.12 2.663-2.574v-2.238a2.549 2.549 0 00-2.253-2.532l-.012-.001z"/>
    </symbol>
    <symbol id="send-btn" viewBox="0 0 32 32">
      <path d="M32 0L0 18l10.227 3.787L26 7 14.003 23.187l.009.003-.012-.003V32l5.735-6.691L27.002 28l4.999-28z"/>
    </symbol>
  </defs>
</svg>
